symbols/web/label_important/materialsymbolsrounded/label_important_wght200gradN25_24px.svg

<svg xmlns="http://www.w3.org/2000/svg" height="24" width="24"><path d="M6.225 15.5 8.5 12 6.225 8.475q-.5-.75-.05-1.55t1.35-.8H14q.525 0 1.012.237.488.238.788.688l2.85 4.05q.3.4.288.888-.013.487-.288.912l-2.95 4.125q-.3.375-.737.612-.438.238-.913.238H7.525q-.9 0-1.35-.8-.45-.8.05-1.575Zm.15 1.45h7.65q.3 0 .537-.138.238-.137.438-.362L18.175 12 15 7.55q-.2-.225-.425-.362-.225-.138-.55-.138h-7.65L9.6 12ZM9.6 12 6.375 7.05 9.6 12l-3.225 4.95Z"/></svg>

<svg xmlns="http://www.w3.org/2000/svg" height="24" width="24"><path d="M6.225 15.5 8.5 12 6.225 8.475Q5.725 7.725 6.175 6.925Q6.625 6.125 7.525 6.125H14Q14.525 6.125 15.012 6.362Q15.5 6.6 15.8 7.05L18.65 11.1Q18.95 11.5 18.938 11.988Q18.925 12.475 18.65 12.9L15.7 17.025Q15.4 17.4 14.963 17.637Q14.525 17.875 14.05 17.875H7.525Q6.625 17.875 6.175 17.075Q5.725 16.275 6.225 15.5ZM6.375 16.95H14.025Q14.325 16.95 14.562 16.812Q14.8 16.675 15 16.45L18.175 12L15 7.55Q14.8 7.325 14.575 7.188Q14.35 7.05 14.025 7.05H6.375L9.6 12ZM9.6 12 6.375 7.05Q6.375 7.05 6.375 7.05Q6.375 7.05 6.375 7.05L9.6 12L6.375 16.95Q6.375 16.95 6.375 16.95Q6.375 16.95 6.375 16.95Z"/></svg>
